X:40
T:mi drawodd ar fy meddwl
R:rond
O:traditional welsh
Z:crm
M:C
L:1/4
Q:1/2=170
K:Glyd
B|ffff|ef2f|eeBB|e3e|
fffd|cee>d|cedc|BcAc|G2z:|
